src/assets/speakers-line.svg

<svg fill="none" height="1300" viewBox="0 0 876 1300" width="876" xmlns="http://www.w3.org/2000/svg"><path d="m664.521 448.298c36.643 118.691 94.904 218.426 170.914 233.497 14.432 2.861 27.936 2.989 40.565.654m-211.479-234.151c-72.008-233.244-60.536-539.693 63.778-420.7014 143.899 137.7384-.264 353.3474-63.778 420.7014zm0 0c-11.821 12.535-20.848 19.935-24.705 20.742-24.578 5.141-121.243-107.964-188.705 9.95-67.462 117.913 393.683 517.356 173.268 625.28-220.416 107.92-478.461-25.67-623.379 194.54" stroke="#faf7f5"/></svg>

<svg width="876" height="1300" viewBox="0 0 876 1300" fill="none" xmlns="http://www.w3.org/2000/svg">
<path d="M664.521 448.298C701.164 566.989 759.425 666.724 835.435 681.795C849.867 684.656 863.371 684.784 876 682.449M664.521 448.298C592.513 215.054 603.985 -91.395 728.299 27.5966C872.198 165.335 728.035 380.944 664.521 448.298ZM664.521 448.298C652.7 460.833 643.673 468.233 639.816 469.04C615.238 474.181 518.573 361.076 451.111 478.99C383.649 596.903 844.794 996.346 624.379 1104.27C403.963 1212.19 145.918 1078.6 1 1298.81" stroke="#FAF7F5"/>
</svg>
